X:436
T:Reel 436
M:4/4
K:Gmaj
L:1/8
B|cEDC CEGE|cEGE cEED|cEE2 GECE|ADEC EcBG|ADED EDCE|cEE2 Gcde|edcB cdec|AcdB c2|Bc|ed (3cdA gABG|Acc2 edef|gedB GABc|AGGB c2dB|edef gefd|BcAB cdef|gefd ecdB|cdec Bcdc|
